X: 115
T: REEL: Red-Haired Lass
C: C: Trad.; S: Various
C: Set Leaders: Mars, Anton
Z: [Unedited]; leprecawn at The Session
N: https://thesession.org/members/26966/sets/94255
R: Reel
M: 4/4
L: 1/8
Q: 1/2=100
K: Gmaj
DGGF G2 BG|G2 BG AGEG|DGGF GABd|egdB c2 BA|
DGGF G2 BG|G2 BG AGEG|DGGF GABd|gedB c2 Bc||
d2 gd edgd|d2 gd BABc|d2 gd edef|gedB c2 Bc|
d2 gd edgd|d2 gd BABd|c3A B3A|GABd egdB||

